X:7377
T:The Strawberry Banks
O:england
B:Joyce, P. W.; "Old Irish Folk Music and Songs"
R:reel
L:1/8
M:C
K:G
G2 AG FGAc|BGBd gfgd|ecAG FGAc|BGAF GFED|
G2 AG FGAc|BGBd gfgd|ecAG FGAc|BGAF G2G2:|
dg g2 agg2|bgaf gfgd|ecAG FGAc|BGAF GFED|
dg g2 agg2|bgaf gfef|dB (3def gfga|1 bgaf gedb:|2bgaf g2 g2|]


